packages/picasso-pictograms/src/Pictogram/svg/ScanHeatmapSiteResearchTestBlue64.svg

<svg fill="none" xmlns="http://www.w3.org/2000/svg" viewBox="0 0 64 65">
  <g clip-path="url(#a)">
    <path opacity=".15" d="M31.5 61.5332c3.3137 0 6-2.6863 6-6s-2.6863-6-6-6-6 2.6863-6 6 2.6863 6 6 6ZM55 24.0332H22v8h33v-8Z" fill="#183A9C"/>
    <path opacity=".15" d="M20 50.0332v-5h31.17l1.19-3H20v-5h34.35l1.19-3H20v-12h37v8.34l5.5-13.84H.5l5.5 13.82v-8.32h11v28h-3.16l2.19 5.5c1.6-2.25 3.68-4.12 6.08-5.5H20Z" fill="#183A9C"/>
    <path opacity=".15" d="M15 24.0332H8v11.34l5.04 12.66H15v-24ZM40.89 50.0332c2.4 1.38 4.48 3.25 6.08 5.5H47l2.19-5.5H40.89ZM22 40.0332h31.16l.4-1H22v1ZM50.38 47.0332H22v1h5.19c1.38-.32 2.83-.5 4.31-.5 1.48 0 2.92.18 4.31.5h14.17l.4-1Z" fill="#183A9C"/>
    <path d="M12 55.5332H2.5c-1.1 0-2-.9-2-2v-43c0-1.1.9-2 2-2h58c1.1 0 2 .9 2 2v43c0 1.1-.9 2-2 2H51M.5 16.5332h62M3.5 12.5332h2M7 12.5332h2M10.5 12.5332h2" stroke="#204ECD" stroke-miterlimit="10"/>
    <path d="M31.5 47.5332c-6.39 0-12.03 3.16-15.47 8 3.44 4.84 9.08 8 15.47 8 6.39 0 12.03-3.16 15.47-8-3.44-4.84-9.08-8-15.47-8Z" stroke="#204ECD" stroke-miterlimit="10"/>
    <path d="M31.5 61.5332c3.3137 0 6-2.6863 6-6s-2.6863-6-6-6-6 2.6863-6 6 2.6863 6 6 6Z" stroke="#204ECD" stroke-miterlimit="10"/>
    <path d="m29 56.0332 1.5 1.5 3.5-3.5" stroke="#204ECD" stroke-miterlimit="10"/>
  </g>
  <defs>
    <clipPath id="a">
      <path fill="#fff" transform="translate(0 .0332031)" d="M0 0h64v64H0z"/>
    </clipPath>
  </defs>
</svg>

<svg width="64" height="65" viewBox="0 0 64 65" fill="none" xmlns="http://www.w3.org/2000/svg">
<g clip-path="url(#clip0_1182_243)">
<path opacity="0.15" d="M31.5 61.5332C34.8137 61.5332 37.5 58.8469 37.5 55.5332C37.5 52.2195 34.8137 49.5332 31.5 49.5332C28.1863 49.5332 25.5 52.2195 25.5 55.5332C25.5 58.8469 28.1863 61.5332 31.5 61.5332Z" fill="#183A9C"/>
<path opacity="0.15" d="M55 24.0332H22V32.0332H55V24.0332Z" fill="#183A9C"/>
<path opacity="0.15" d="M20 50.0332V45.0332H51.17L52.36 42.0332H20V37.0332H54.35L55.54 34.0332H20V22.0332H57V30.3732L62.5 16.5332H0.5L6 30.3532V22.0332H17V50.0332H13.84L16.03 55.5332C17.63 53.2832 19.71 51.4132 22.11 50.0332H20Z" fill="#183A9C"/>
<path opacity="0.15" d="M15 24.0332H8V35.3732L13.04 48.0332H15V24.0332Z" fill="#183A9C"/>
<path opacity="0.15" d="M40.89 50.0332C43.29 51.4132 45.37 53.2832 46.97 55.5332H47L49.19 50.0332H40.9H40.89Z" fill="#183A9C"/>
<path opacity="0.15" d="M22 40.0332H53.16L53.56 39.0332H22V40.0332Z" fill="#183A9C"/>
<path opacity="0.15" d="M50.38 47.0332H22V48.0332H27.19C28.57 47.7132 30.02 47.5332 31.5 47.5332C32.98 47.5332 34.42 47.7132 35.81 48.0332H49.98L50.38 47.0332Z" fill="#183A9C"/>
<path d="M12 55.5332H2.5C1.4 55.5332 0.5 54.6332 0.5 53.5332V10.5332C0.5 9.4332 1.4 8.5332 2.5 8.5332H60.5C61.6 8.5332 62.5 9.4332 62.5 10.5332V53.5332C62.5 54.6332 61.6 55.5332 60.5 55.5332H51" stroke="#204ECD" stroke-miterlimit="10"/>
<path d="M0.5 16.5332H62.5" stroke="#204ECD" stroke-miterlimit="10"/>
<path d="M3.5 12.5332H5.5" stroke="#204ECD" stroke-miterlimit="10"/>
<path d="M7 12.5332H9" stroke="#204ECD" stroke-miterlimit="10"/>
<path d="M10.5 12.5332H12.5" stroke="#204ECD" stroke-miterlimit="10"/>
<path d="M31.5 47.5332C25.11 47.5332 19.47 50.6932 16.03 55.5332C19.47 60.3732 25.11 63.5332 31.5 63.5332C37.89 63.5332 43.53 60.3732 46.97 55.5332C43.53 50.6932 37.89 47.5332 31.5 47.5332Z" stroke="#204ECD" stroke-miterlimit="10"/>
<path d="M31.5 61.5332C34.8137 61.5332 37.5 58.8469 37.5 55.5332C37.5 52.2195 34.8137 49.5332 31.5 49.5332C28.1863 49.5332 25.5 52.2195 25.5 55.5332C25.5 58.8469 28.1863 61.5332 31.5 61.5332Z" stroke="#204ECD" stroke-miterlimit="10"/>
<path d="M29 56.0332L30.5 57.5332L34 54.0332" stroke="#204ECD" stroke-miterlimit="10"/>
</g>
<defs>
<clipPath id="clip0_1182_243">
<rect width="64" height="64" fill="white" transform="translate(0 0.0332031)"/>
</clipPath>
</defs>
</svg>
